svg/design/vector_group_fill.svg

<?xml version="1.0" encoding="UTF-8"?>
<svg width="24px" height="24px" viewBox="0 0 24 24" version="1.1" xmlns="http://www.w3.org/2000/svg" xmlns:xlink="http://www.w3.org/1999/xlink">
    <title>vector_group_fill</title>
    <g id="Icon" stroke="none" stroke-width="1" fill="none" fill-rule="evenodd">
        <g id="Design" transform="translate(-960.000000, -336.000000)">
            <g id="vector_group_fill" transform="translate(960.000000, 336.000000)">
                <path d="M24,0 L24,24 L0,24 L0,0 L24,0 Z M12.5935,23.2578 L12.5819,23.2595 L12.5109,23.295 L12.4919,23.2987 L12.4767,23.295 L12.4057,23.2595 C12.3958,23.2564 12.387,23.259 12.3821,23.2649 L12.378,23.2758 L12.3609,23.7031 L12.3659,23.7235 L12.3769,23.7357 L12.4805,23.8097 L12.4953,23.8136 L12.5071,23.8097 L12.6107,23.7357 L12.6233,23.7197 L12.6267,23.7031 L12.6096,23.2758 C12.6076,23.2657 12.601,23.2593 12.5935,23.2578 Z M12.8584,23.1453 L12.8445,23.1473 L12.6598,23.2397 L12.6499,23.2499 L12.6472,23.2611 L12.6651,23.6906 L12.6699,23.7034 L12.6784,23.7105 L12.8793,23.8032 C12.8914,23.8069 12.9022,23.803 12.9078,23.7952 L12.9118,23.7812 L12.8777,23.1665 C12.8753,23.1546 12.8674,23.147 12.8584,23.1453 Z M12.143,23.1473 C12.1332,23.1424 12.1222,23.1453 12.1156,23.1526 L12.1099,23.1665 L12.0758,23.7812 C12.0751,23.7927 12.0828,23.8019 12.0926,23.8046 L12.1083,23.8032 L12.3092,23.7105 L12.3186,23.7024 L12.3225,23.6906 L12.3404,23.2611 L12.3372,23.2485 L12.3278,23.2397 L12.143,23.1473 Z" id="MingCute" fill-rule="nonzero"></path>
                <path d="M10.5,3 C9.11929,3 8,4.11929 8,5.5 C8,6.31791 8.39278,7.04408 9,7.50018 L9,9 L7.50018,9 C7.04408,8.39278 6.31791,8 5.5,8 C4.11929,8 3,9.11929 3,10.5 C3,11.3179 3.39278,12.0441 4,12.5002 L4,16.4998 C3.39278,16.9559 3,17.6821 3,18.5 C3,19.8807 4.11929,21 5.5,21 C6.31791,21 7.04408,20.6072 7.50018,20 L11.4998,20 C11.9559,20.6072 12.6821,21 13.5,21 C14.8807,21 16,19.8807 16,18.5 C16,17.6821 15.6072,16.9559 15,16.4998 L15,15 L16.4998,15 C16.9559,15.6072 17.6821,16 18.5,16 C19.8807,16 21,14.8807 21,13.5 C21,12.6821 20.6072,11.9559 20,11.4998 L20,7.50018 C20.6072,7.04408 21,6.31791 21,5.5 C21,4.11929 19.8807,3 18.5,3 C17.6821,3 16.9559,3.39278 16.4998,4 L12.5002,4 C12.0441,3.39278 11.3179,3 10.5,3 Z M16.05,6 L12.95,6 C12.7512,6.97957 11.9796,7.75115 11,7.94999 L11,11.05 C11.9796,11.2488 12.7512,12.0204 12.95,13 L16.05,13 C16.2488,12.0204 17.0204,11.2488 18,11.05 L18,7.94999 C17.0204,7.75115 16.2488,6.97957 16.05,6 Z M8,13.5 C8,12.6821 8.39278,11.9559 9,11.4998 L9,11 L7.94999,11 C7.75115,11.9796 6.97957,12.7512 6,12.95 L6,16.05 C6.97957,16.2488 7.75115,17.0204 7.94999,18 L11.05,18 C11.2488,17.0204 12.0204,16.2488 13,16.05 L13,15 L12.5002,15 C12.0441,15.6072 11.3179,16 10.5,16 C9.11929,16 8,14.8807 8,13.5 Z" id="形状" fill="#09244B"></path>
            </g>
        </g>
    </g>
</svg>

<svg xmlns="http://www.w3.org/2000/svg" width="24" height="24"><g fill="none" fill-rule="evenodd"><path d="M24 0v24H0V0h24ZM12.594 23.258l-.012.002-.071.035-.02.004-.014-.004-.071-.036c-.01-.003-.019 0-.024.006l-.004.01-.017.428.005.02.01.013.104.074.015.004.012-.004.104-.074.012-.016.004-.017-.017-.427c-.002-.01-.009-.017-.016-.018Zm.264-.113-.014.002-.184.093-.01.01-.003.011.018.43.005.012.008.008.201.092c.012.004.023 0 .029-.008l.004-.014-.034-.614c-.003-.012-.01-.02-.02-.022Zm-.715.002a.023.023 0 0 0-.027.006l-.006.014-.034.614c0 .012.007.02.017.024l.015-.002.201-.093.01-.008.003-.011.018-.43-.003-.012-.01-.01-.184-.092Z"/><path fill="#09244B" d="M10.5 3A2.5 2.5 0 0 0 9 7.5V9H7.5A2.5 2.5 0 1 0 4 12.5v4A2.5 2.5 0 1 0 7.5 20h4a2.5 2.5 0 1 0 3.5-3.5V15h1.5a2.5 2.5 0 1 0 3.5-3.5v-4A2.5 2.5 0 1 0 16.5 4h-4a2.496 2.496 0 0 0-2-1Zm5.55 3h-3.1A2.503 2.503 0 0 1 11 7.95v3.1c.98.199 1.751.97 1.95 1.95h3.1c.199-.98.97-1.751 1.95-1.95v-3.1A2.503 2.503 0 0 1 16.05 6ZM8 13.5c0-.818.393-1.544 1-2V11H7.95A2.503 2.503 0 0 1 6 12.95v3.1c.98.199 1.751.97 1.95 1.95h3.1c.199-.98.97-1.751 1.95-1.95V15h-.5A2.5 2.5 0 0 1 8 13.5Z"/></g></svg>
